icons/security-lock-4-filled.svg

<svg viewBox="0 0 24 24"><path fill="currentColor" fill-rule="evenodd" d="M12 3c-3.6 0-6.4 2.9-6.4 6.5v1.6a7 7 0 0 0-.8 3.3c0 4 3.2 7.2 7.2 7.2 4 0 7.2-3.2 7.2-7.2a7 7 0 0 0-.8-3.3v-1.6c0-3.6-2.8-6.5-6.4-6.5Zm4.3 5.7c-.3-2.1-2.1-3.7-4.3-3.7s-4 1.6-4.3 3.7a7 7 0 0 1 4.3-1.4q2.4 0 4.3 1.4Zm-4.3 3.8a1 1 0 0 1 1 1v2.4a1 1 0 0 1-2 0v-2.4a1 1 0 0 1 1-1Z" clip-rule="evenodd"/></svg>

<svg viewBox="0 0 24 24"><path fill="currentColor" fill-rule="evenodd" d="M12 3C8.4 3 5.6 5.9 5.6 9.5V11a7 7 0 0 0-.8 3.3c0 4 3.2 7.2 7.2 7.2s7.2-3.2 7.2-7.2a7 7 0 0 0-.8-3.3V9.5C18.4 5.9 15.6 3 12 3m4.3 5.7C16 6.6 14.2 5 12 5S8 6.6 7.7 8.7A7 7 0 0 1 12 7.3q2.4 0 4.3 1.4M12 12.5a1 1 0 0 1 1 1v2.4a1 1 0 0 1-2 0v-2.4a1 1 0 0 1 1-1" clip-rule="evenodd"/></svg>
